X:63
T:O'Gallagher's Hornpipe
C:V.C.A.
M:C|
K:G
%%MIDI channel 1
%%MIDI program 72
%%MIDI transpose 8
%%MIDI grace 1/8
%%MIDI ratio 3 1
(Bc)|d^ced =cBAG|BAGF GABc|dgfg edcB|AGFE D2(Bc)|d^ced =cBAG|
BAGF GABc|dgfg ecAF|G2G2G2::(Bc)|dgfg edcd|e^def g2fg|
edcB cBAG|AGFE D2(EF)|GFGB A^GAc|B^ABd efge|BdBG AcAF|G2G2G2:|
